X: 12
T: Angleworm Wiggle
T: Jumping Cactus
M:2/4
L:1/8
S:Viola "Mom" Ruth - Pioneer Western Folk Tunes (1948)
Z:AK/Fiddler's Companion
K:G
[d/b/][d/b/][d/b/][d/b/] [db][ca]|[B/g][B/g/][B/g/][B/g/] [Bg][df]|
[c/e/][c/e/][c/e/][c/e/] [ce][Fd]|cB A2|[c/a/][c/a/][c/a/][c/a/] [ca][Bg]|
[d3f3] (f/e/)|ddef|[B2g2][B2g2]:|
|:GABc|[F3d3] (B/c/)|d(B/c/) dB|[F3A3] AA|DFAc|[c3e3]d|
f>e d(e/f/)|gg gz:|

%%sep 1 1 500
